assets/images/c-sharp.svg

<svg version="1.1" xmlns="http://www.w3.org/2000/svg" width="455px" height="512px"><path d="M335.2219849,244.6636963h14.1854858L347.5634155,262h-14.1361694L335.2219849,244.6636963z M454.9803467,147.4076538v217.1847534c-0.4816284,13.7158203-7.4530029,25.9771729-19.7009888,34.1234131L247.1911011,507.3074341c-10.8347778,6.2567139-28.5671387,6.2567139-39.4018555,0L19.7009277,398.7158203C8.2855835,391.2316895,0.8429565,379.1637573,0,364.5924072V147.4076538c0-12.5119629,8.864624-27.8682861,19.7009277-34.1235352L207.7892456,4.6925049c10.8347168-6.2566528,28.5670776-6.2566528,39.4018555,0l188.0882568,108.5916138C446.6565552,120.9649048,454.5403442,134.2429199,454.9803467,147.4076538z M358.8307495,331.8723755l-65.6346436-37.9788818c-43.7824097,70.0854492-140.475647,35.8363037-141.5360107-37.8928223c3.5307617-79.998291,101.9100952-103.4307861,141.5316162-37.8971558l65.6345825-37.9804077C273.2891846,42.5216675,74.9389038,107.9119263,75.8300781,256.0006714C79.6317749,415.6530762,283.4476929,462.7354736,358.8307495,331.8723755z M374.5,232.5919189h-11.2527466L365.2755127,213h-12.5l-2.0839844,19.5919189h-14.2197876L338.5,213H326l-2.0839844,19.5919189H312v12.0717773h10.631958L320.7879028,262H308.5v12.0717773h11.0037842L317.2244873,295.5h12.7346802l2.2183838-21.4282227h14.1017456L344,295.5h12.7346802l2.2183838-21.4282227H371V262h-10.7972412l1.7947388-17.3363037H374.5V232.5919189z"/></svg>

<?xml version="1.0" encoding="UTF-8"?>
<svg id="Layer_1" data-name="Layer 1" xmlns="http://www.w3.org/2000/svg" viewBox="0 0 454.98 512">
  <defs>
    <style>
      .cls-1 {
        fill: #fff;
        stroke-width: 0px;
      }
    </style>
  </defs>
  <path class="cls-1" d="M335.22,244.66h14.19l-1.84,17.34h-14.14l1.79-17.34ZM454.98,147.41v217.18c-.48,13.72-7.45,25.98-19.7,34.12l-188.09,108.59c-10.83,6.26-28.57,6.26-39.4,0L19.7,398.72c-11.42-7.48-18.86-19.55-19.7-34.12v-217.18c0-12.51,8.86-27.87,19.7-34.12L207.79,4.69c10.83-6.26,28.57-6.26,39.4,0l188.09,108.59c11.38,7.68,19.26,20.96,19.7,34.12ZM358.83,331.87l-65.63-37.98c-43.78,70.09-140.48,35.84-141.54-37.89,3.53-80,101.91-103.43,141.53-37.9l65.63-37.98C273.29,42.52,74.94,107.91,75.83,256c3.8,159.65,207.62,206.73,283,75.87ZM374.5,232.59h-11.25l2.03-19.59h-12.5l-2.08,19.59h-14.22l2.03-19.59h-12.5l-2.08,19.59h-11.92v12.07h10.63l-1.84,17.34h-12.29v12.07h11l-2.28,21.43h12.73l2.22-21.43h14.1l-2.28,21.43h12.73l2.22-21.43h12.05v-12.07h-10.8l1.79-17.34h12.5v-12.07Z"/>
</svg>
